img/svg/sto.svg

<svg width="46" height="43" viewBox="0 0 46 43" fill="none" xmlns="http://www.w3.org/2000/svg">
<path fill-rule="evenodd" clip-rule="evenodd" d="M4.41849 12.3476C4.41849 11.2976 4.8384 10.1479 5.3753 9.34362L5.96169 8.61013C6.89467 7.58884 8.42424 6.99554 9.90305 6.99554C12.8046 6.99554 15.2488 9.45205 15.2488 12.3476C15.2488 16.5964 10.7455 18.842 7.61088 17.2837C7.29465 17.1265 7.05892 17.0093 6.76389 16.811L5.99548 16.1902C5.30381 15.4671 4.80971 14.5643 4.57381 13.582C4.50846 13.3096 4.41849 12.6378 4.41849 12.3475V12.3476ZM6.43172 3.6592V5.32741C6.01755 5.42403 5.35904 6.01725 5.13677 5.98845C5.01317 5.97241 4.59103 5.70265 4.46599 5.62733C4.21184 5.4743 4.04329 5.3902 3.79361 5.25783L2.5271 6.49207C2.79408 6.98221 3.086 7.46389 3.37704 7.89914C3.23264 8.11512 3.14617 8.2443 3.00591 8.50066L2.68283 9.15029H1.01666C0.924931 9.54453 0.600098 10.6273 0.600098 10.9574C0.888591 11.0248 1.6849 11.5714 1.98861 11.6525V13.0426C1.98861 13.2489 1.87544 13.2362 1.719 13.3288C1.60377 13.397 1.49315 13.4592 1.36373 13.5292C1.10488 13.6692 0.869783 13.8035 0.600098 13.9463C0.738208 14.5398 0.951788 15.1069 1.08607 15.6839H2.68283C2.94646 16.1827 3.14226 16.5496 3.44646 17.0046L2.68283 18.3252L3.91562 19.5932C5.67343 18.5967 4.90996 18.6712 5.9216 19.1835C6.15758 19.3029 6.3922 19.4489 6.64013 19.5068L6.57063 20.8969C6.57063 21.2048 8.24373 21.5115 8.37571 21.5225C8.45054 21.2419 8.91779 20.4897 9.06992 20.2018L10.6667 20.1323C10.7728 20.5302 11.2548 21.0551 11.3609 21.4529C11.7055 21.4529 12.9175 21.0858 13.166 20.9664C13.166 20.6215 13.1047 20.6238 13.0943 20.2736C13.0863 20.0027 13.0966 19.7106 13.0966 19.4372C13.5327 19.3355 14.1438 18.9014 14.4851 18.6726C14.5579 18.736 14.4965 18.6874 14.605 18.761C14.6501 18.7917 14.738 18.8471 14.7744 18.8694C14.9015 18.9476 14.9426 18.9658 15.0861 19.0439C15.3212 19.1719 15.5339 19.3025 15.7348 19.4371L17.0013 18.2029C16.8336 17.5911 16.2047 17.1523 16.3334 16.7772L16.7289 16.1231C17.1639 15.3384 16.6801 15.4752 18.5811 15.4752C18.5865 15.2351 18.9189 13.9019 18.9976 13.7376C18.8051 13.6926 17.8588 13.1632 17.6786 13.0424C17.714 12.6156 17.748 12.8407 17.748 12.1389C17.748 11.753 17.6786 11.7267 17.6786 11.3743C18.0606 11.2853 18.5142 10.8454 18.9282 10.7488C18.9087 10.5144 18.526 9.11654 18.4422 8.94157C17.951 8.94157 17.5623 9.01106 16.9843 9.01106C16.9162 8.71856 16.7591 8.54055 16.6136 8.26999C16.4633 7.99057 16.3361 7.83395 16.1512 7.62091C16.3883 7.17219 16.6806 6.7434 16.9148 6.30026C16.4283 5.97409 16.0876 5.44844 15.5958 5.11868L14.3461 5.88321L13.3387 5.29318C13.1843 5.21586 13.0913 5.18953 12.9576 5.11868V3.58954C12.5638 3.49771 11.4823 3.17249 11.1525 3.17249C11.0807 3.44169 10.6118 4.20271 10.4583 4.49314C10.2043 4.49314 9.94481 4.48732 9.69186 4.49035C9.31339 4.49506 9.27761 4.56264 8.93094 4.56264L8.16731 3.17241L6.43164 3.65896L6.43172 3.6592Z" fill="white"/>
<path fill-rule="evenodd" clip-rule="evenodd" d="M21.5666 12.7646C21.5666 11.8324 21.7464 11.1023 22.4154 10.4867C24.3989 8.66188 27.19 10.3256 27.19 12.278V12.7646C27.19 14.0469 25.902 15.3364 24.6213 15.3364C23.6041 15.3364 23.137 15.2765 22.3817 14.5203C21.9318 14.0699 21.5666 13.4664 21.5666 12.7646ZM22.4691 7.55163C22.4691 8.07688 22.3997 8.42188 22.3997 9.01128C21.858 9.13766 22.26 9.41604 21.3125 8.98758C20.5951 8.66316 20.6206 8.49058 19.9004 9.5674C20.057 10.155 20.7509 10.4953 20.6157 10.9682C20.5087 11.3424 20.2952 11.3602 19.9535 11.4277C19.6769 11.4825 19.2647 11.5576 19.0673 11.6526C18.9763 12.0439 18.9978 12.3547 18.9978 12.8342C19.3443 12.863 19.6243 13.0304 19.9454 13.1366C20.4114 13.2908 20.4118 13.3466 20.4558 13.8767C20.2408 14.1981 19.7762 14.586 19.5533 14.9193L20.1087 15.8924C20.9981 15.8182 21.3819 15.1996 21.8689 15.8001C22.0113 15.9757 22.0063 15.9047 21.9701 16.2152C21.9372 16.4968 21.9098 17.0014 21.8443 17.2826C22.1347 17.4364 22.6057 17.6903 23.0245 17.6996C23.0804 17.4901 23.2549 17.3465 23.3915 17.1635C23.5265 16.9827 23.7347 16.788 23.7882 16.5875C24.0121 16.695 24.1666 16.657 24.4824 16.657C24.5771 17.064 25.0035 17.4497 25.1072 17.8386C25.613 17.8386 25.9235 17.6455 26.2874 17.5606C26.2874 17.2309 26.2585 16.757 26.2847 16.4458C26.3177 16.0526 26.5706 16.0054 26.8428 15.8229L28.1619 16.379L28.8561 15.4754C28.5094 14.8194 27.4196 13.9143 28.8152 13.6273C29.1654 13.5552 29.4261 13.5167 29.6892 13.3902V12.2086C29.2599 12.1729 28.8154 11.8954 28.3701 11.7916C28.3552 11.1204 28.001 11.5 28.91 10.4555C29.021 10.328 29.0397 10.3337 29.1338 10.1929C29.0855 9.98549 28.656 9.21984 28.509 9.21984C28.1816 9.21984 27.4746 9.48482 27.1205 9.5674C27.002 9.39011 27.0015 9.3503 26.7734 9.28934C26.7734 8.67585 26.8428 8.34888 26.8428 7.7602C25.8337 7.52482 25.9946 7.02328 25.3649 7.87924C25.2294 8.06347 25.0226 8.25193 24.9684 8.45531H24.3436C24.2503 8.31584 23.6661 7.27365 23.5798 7.27365C23.214 7.27365 22.7169 7.43267 22.4691 7.55171L22.4691 7.55163Z" fill="white"/>
<path fill-rule="evenodd" clip-rule="evenodd" d="M17.7479 21.87C17.7479 21.1311 17.7597 20.4022 18.4609 19.8036C20.3134 18.2218 22.4689 19.8529 22.4689 21.2444C22.4689 21.999 22.451 22.7499 21.7172 23.3416C20.6677 24.1881 19.5514 24.1545 18.5088 23.3325C18.2067 23.0943 17.7479 22.4013 17.7479 21.8699V21.87ZM18.5811 17.6302V18.3947C18.324 18.4635 18.2545 18.6032 17.9563 18.6727C17.7714 18.5488 17.5858 18.4491 17.4008 18.3252L16.8307 18.9362C16.9607 19.169 17.0725 19.3494 17.1926 19.5763C17.0753 19.7515 16.9712 19.8901 16.9148 20.1324C16.1791 20.1324 16.2169 19.7198 15.9429 20.8969C16.1608 21.0124 16.341 21.1243 16.5677 21.2444V21.9394C15.6631 22.1813 16.1399 22.5448 16.1511 23.0515C17.0187 23.0515 16.8653 22.9937 17.0389 23.2749C17.381 23.8291 17.0508 23.6488 16.9148 24.2332L17.4539 24.8056C17.6845 24.6757 17.8323 24.5713 18.0256 24.4417C18.2227 24.546 18.4121 24.6642 18.6504 24.7197V25.4843C19.5093 25.5558 19.2821 25.9736 19.7612 25.0672H20.5248C20.5812 25.3095 20.6853 25.448 20.8025 25.6233C21.1192 25.5969 21.3563 25.4799 21.6356 25.4148C21.5694 25.1301 21.5662 25.0884 21.5662 24.7197C21.8296 24.6582 21.9905 24.5066 22.191 24.3722L22.7464 24.7197L23.3181 24.1801C23.2294 23.8526 23.0592 23.8033 23.044 23.5978C23.0269 23.3663 23.228 23.2993 23.3018 22.9821H23.996C24.0615 22.8454 24.1884 22.3398 24.2042 22.148C23.5973 21.8265 23.6488 22.0448 23.6488 21.2444C23.6488 21.0162 24.0205 20.9247 24.2042 20.8274C24.1392 20.5477 24.0223 20.3103 23.996 19.9933H23.3018C22.8953 19.2242 22.9036 19.5651 23.3018 18.8117C23.1852 18.7336 22.799 18.3252 22.7464 18.3252C22.3503 18.3252 22.3911 18.5682 22.1224 18.5725C21.9884 18.5746 21.7322 18.3801 21.4967 18.3252V17.5606C21.1499 17.5529 21.0105 17.4293 20.6636 17.4216C20.5815 17.7745 20.4681 17.6942 20.3859 18.0471C20.1474 18.0274 20.2366 18.0091 20.0588 18.0161C19.9844 18.0191 19.8261 18.0471 19.6918 18.0471C19.6376 17.8442 19.4533 17.5841 19.3446 17.4216C19.0887 17.4813 18.8532 17.5666 18.581 17.6301L18.5811 17.6302Z" fill="white"/>
<path fill-rule="evenodd" clip-rule="evenodd" d="M18.5812 6.09191C18.5812 4.70871 20.8027 4.45642 20.8027 6.16141C20.8027 7.21756 19.1386 7.52929 18.6983 6.53067C18.6734 6.4741 18.5812 6.13029 18.5812 6.09191V6.09191ZM18.5812 4.56277C18.3295 4.56277 18.1936 4.50437 18.0257 4.4237C17.9179 4.58495 17.7932 4.73887 17.6786 4.91025C17.8912 5.31262 18.1595 5.7031 17.7417 6.08545C17.6509 6.16851 17.4009 6.27614 17.4009 6.36989C17.4009 7.36006 18.0332 6.58596 18.4536 7.40115C18.5494 7.58682 18.5117 7.84581 18.5117 8.1076C18.6815 8.19752 18.83 8.23566 18.9976 8.31608C19.1436 8.09778 19.2992 7.88722 19.5206 7.87733C19.5239 7.87717 19.6466 7.88706 19.6865 7.88635C19.9696 7.88156 19.8285 7.85284 20.1084 7.82954L20.509 8.26263C21.4081 7.97738 20.8209 7.81877 20.9764 7.37865L21.2668 6.97365C21.5385 6.66878 21.7988 6.95466 21.9788 6.64397C22.2304 6.20992 21.8264 6.088 21.7147 6.01276C21.502 5.86954 21.5493 5.92484 21.4717 5.62691C21.394 5.32898 21.3306 5.25653 21.4901 4.97823L21.6357 4.77118C20.9636 3.76625 21.1642 4.94695 20.1933 4.26915C20.0228 4.15011 19.9488 3.93779 19.9001 3.72867C18.8415 3.72867 19.5309 4.00513 18.956 4.38205C18.8709 4.43782 18.659 4.56277 18.5811 4.56277H18.5812Z" fill="white"/>
<path fill-rule="evenodd" clip-rule="evenodd" d="M22.4813 38.7078C23.3959 38.3426 24.4994 37.6061 25.3928 37.1244C26.1445 36.719 26.1521 36.8263 26.1453 35.8847C26.119 32.217 26.5274 32.9129 25.0141 32.0378C24.2957 31.6224 23.3461 30.9528 22.5752 30.6492L19.4382 32.4535C18.7886 32.9905 19.0607 36.0281 19.2425 36.7912L22.4813 38.7078V38.7078ZM37.8833 8.75722C37.5234 7.92735 37.1385 7.16944 36.7262 6.3043C36.2223 5.24679 36.6154 5.13875 37.0784 4.24289C37.7723 2.90062 39.0242 1.10818 39.2374 0.34285C35.8989 1.01961 33.5107 1.3493 31.9651 3.81124C30.6689 5.87615 31.0603 8.47023 31.7458 11.5406L22.6346 27.0388C18.4863 27.7482 16.1347 29.8775 15.4876 32.8618C13.2235 43.3026 28.4997 45.5533 30.2205 35.7408C30.6145 33.4941 30.0791 32.553 29.2681 30.3992L37.7298 16.6418C38.851 14.8173 38.267 15.6828 40.6213 14.8256C46.6983 12.6131 46.2655 5.99257 44.509 3.46639C44.4043 3.87547 42.5185 6.59672 42.1133 7.22074C41.254 8.54435 41.6721 8.80414 37.8834 8.7573L37.8833 8.75722Z" fill="white"/>
</svg>

<svg width="46" height="43" fill="none" xmlns="http://www.w3.org/2000/svg"><path fill-rule="evenodd" clip-rule="evenodd" d="M4.418 12.348c0-1.05.42-2.2.957-3.004l.587-.734c.933-1.021 2.462-1.614 3.941-1.614 2.902 0 5.346 2.456 5.346 5.352 0 4.248-4.504 6.494-7.638 4.936a6.794 6.794 0 01-.847-.473l-.769-.62a5.709 5.709 0 01-1.421-2.609 7.706 7.706 0 01-.156-1.235zm2.014-8.689v1.668c-.414.097-1.073.69-1.295.661-.124-.016-.546-.285-.671-.36-.254-.154-.423-.238-.672-.37L2.527 6.492c.267.49.559.972.85 1.407-.144.216-.23.345-.371.602l-.323.65H1.017C.925 9.544.6 10.626.6 10.956c.289.068 1.085.614 1.389.695v1.39c0 .207-.114.194-.27.287-.115.068-.226.13-.355.2-.26.14-.494.274-.764.417.138.594.352 1.16.486 1.738h1.597c.263.499.46.866.763 1.32l-.763 1.321 1.233 1.268c1.757-.996.994-.922 2.006-.41.236.12.47.266.718.324l-.07 1.39c0 .308 1.674.615 1.806.626.075-.281.542-1.033.694-1.321l1.597-.07c.106.398.588.923.694 1.32.345 0 1.556-.366 1.805-.486 0-.345-.061-.342-.072-.692-.008-.271.003-.563.003-.837.436-.102 1.047-.536 1.388-.764.073.063.011.014.12.088.045.03.133.086.17.108.127.079.168.097.311.175.235.128.448.258.649.393L17 18.203c-.167-.612-.796-1.05-.668-1.426l.396-.654c.435-.785-.049-.648 1.852-.648.006-.24.338-1.573.417-1.737-.193-.045-1.14-.575-1.32-.696.036-.426.07-.201.07-.903 0-.386-.07-.412-.07-.765.383-.089.836-.529 1.25-.625-.02-.235-.402-1.632-.486-1.807-.491 0-.88.07-1.458.07-.068-.293-.225-.471-.37-.742a3.184 3.184 0 00-.463-.65c.237-.448.53-.877.764-1.32-.487-.326-.827-.852-1.32-1.181l-1.249.764-1.007-.59c-.155-.077-.248-.103-.381-.174v-1.53c-.394-.091-1.476-.417-1.806-.417-.071.27-.54 1.03-.694 1.321-.254 0-.513-.006-.766-.003-.379.005-.414.073-.761.073l-.764-1.39-1.735.486zm15.135 9.106c0-.933.18-1.663.848-2.278 1.984-1.825 4.775-.161 4.775 1.791v.487c0 1.282-1.288 2.571-2.569 2.571-1.017 0-1.484-.06-2.24-.816-.45-.45-.814-1.054-.814-1.755zm.902-5.213c0 .525-.07.87-.07 1.46-.541.126-.139.404-1.087-.024-.717-.325-.691-.497-1.412.58.157.587.85.927.716 1.4-.107.374-.32.392-.663.46-.276.054-.688.13-.886.225-.09.39-.07.702-.07 1.181.347.029.627.196.948.303.466.154.467.21.51.74-.214.321-.679.709-.902 1.042l.556.973c.89-.074 1.273-.692 1.76-.092.142.176.137.105.101.415-.033.282-.06.786-.126 1.068.29.153.762.407 1.18.417.056-.21.23-.354.367-.537.136-.18.344-.375.397-.576.224.108.379.07.694.07.095.407.521.793.625 1.182.506 0 .817-.194 1.18-.278 0-.33-.028-.804-.002-1.115.033-.393.286-.44.558-.623l1.319.556.694-.904c-.347-.656-1.436-1.56-.04-1.848.35-.072.61-.11.873-.237v-1.18c-.43-.036-.874-.314-1.319-.417-.015-.672-.369-.292.54-1.336.111-.128.13-.122.224-.263-.049-.208-.478-.973-.625-.973-.327 0-1.034.265-1.389.347-.118-.177-.119-.217-.347-.278 0-.613.07-.94.07-1.529-1.01-.235-.848-.737-1.478.12-.136.183-.342.372-.397.575h-.624c-.094-.14-.678-1.181-.764-1.181-.366 0-.863.159-1.11.278zM17.748 21.87c0-.739.012-1.468.713-2.066 1.852-1.582 4.008.049 4.008 1.44 0 .755-.018 1.506-.752 2.098-1.05.846-2.166.813-3.208-.01-.302-.238-.761-.93-.761-1.462zm.833-4.24v.765c-.257.069-.326.208-.625.278-.185-.124-.37-.224-.555-.348l-.57.611c.13.233.242.413.362.64-.118.175-.222.314-.278.556-.736 0-.698-.412-.972.765.218.115.398.227.625.347v.695c-.905.242-.428.606-.417 1.113.868 0 .714-.058.888.223.342.554.012.374-.124.958l.539.573c.23-.13.378-.235.572-.364.197.104.386.222.624.278v.764c.86.072.632.49 1.111-.417h.764c.056.242.16.381.277.556.317-.026.554-.143.834-.208-.067-.285-.07-.327-.07-.695.264-.062.425-.213.625-.348l.555.348.572-.54c-.089-.327-.259-.377-.274-.582-.017-.232.184-.299.258-.616h.694c.066-.137.192-.642.208-.834-.607-.322-.555-.103-.555-.904 0-.228.371-.32.555-.417-.065-.28-.182-.517-.208-.834h-.694c-.407-.769-.398-.428 0-1.181-.117-.078-.503-.487-.556-.487-.396 0-.355.243-.624.248-.134.002-.39-.193-.625-.248v-.764c-.347-.008-.486-.132-.833-.14-.083.354-.196.273-.278.626-.239-.02-.15-.038-.327-.03-.075.002-.233.03-.367.03-.054-.203-.239-.463-.347-.625-.256.06-.492.145-.764.208zm0-11.538c0-1.383 2.222-1.636 2.222.07 0 1.056-1.664 1.367-2.105.369a3.547 3.547 0 01-.117-.44zm0-1.53a1.12 1.12 0 01-.555-.138c-.108.16-.233.315-.347.486.212.403.48.793.063 1.175-.091.084-.341.191-.341.285 0 .99.632.216 1.053 1.031.095.186.058.445.058.707.17.09.318.128.486.208.146-.218.301-.429.523-.439.003 0 .126.01.165.01.284-.005.142-.034.422-.057l.401.433c.9-.286.312-.444.467-.884l.29-.405c.273-.305.533-.02.713-.33.251-.434-.153-.556-.264-.631-.213-.143-.166-.088-.243-.386-.078-.298-.141-.37.018-.649l.146-.207c-.672-1.005-.472.176-1.443-.502-.17-.119-.244-.331-.293-.54-1.058 0-.37.276-.944.653-.085.056-.297.18-.375.18z" fill="#fff"/><path fill-rule="evenodd" clip-rule="evenodd" d="M22.481 38.708c.915-.365 2.018-1.102 2.912-1.584.752-.405.76-.298.752-1.24-.026-3.667.382-2.971-1.13-3.846-.72-.416-1.669-1.085-2.44-1.389l-3.137 1.804c-.65.537-.377 3.575-.195 4.338l3.238 1.917zm15.402-29.95c-.36-.83-.745-1.589-1.157-2.454-.504-1.057-.11-1.165.352-2.061.694-1.342 1.946-3.135 2.16-3.9-3.34.677-5.727 1.006-7.273 3.468-1.296 2.065-.905 4.66-.22 7.73l-9.11 15.498c-4.149.71-6.5 2.838-7.147 5.823C13.224 43.302 28.5 45.553 30.22 35.74c.393-2.247-.142-3.188-.953-5.342l8.462-13.757c1.121-1.825.537-.96 2.891-1.816 6.077-2.213 5.645-8.833 3.888-11.36-.105.41-1.99 3.13-2.396 3.755-.859 1.323-.44 1.583-4.23 1.536z" fill="#fff"/></svg>
